X: 34
T:Road To Errol
% Nottingham Music Database
S:Bob McQuillen Oct 1975, via PR
M:4/4
L:1/4
K:G
cB A|"G"G3/2D/2 B,D|GD BG|"G"G3/2D/2 B,D|GD BG|"D"A3/2F/2 DF|
"Am"AB "D7"cA|"G"B3/2A/2 GB|"D7"Ac BA|"G"G3/2D/2 B,D|GD BG|"G"G3/2D/2 B,D|
GD BG|"D"A3/2F/2 DF|"Am"AB "D7"cd|"G"B2 G3/2G/2|"G"GB "G7"cd||
"C"e3/2c/2 Gc|ec ge|"G"d3/2B/2 GB|dB gd|"Am"c3/2B/2 AB|
"Am"ce "D7"dc|"G"B3/2c/2 de|"G7"dB cd|"C"e3/2c/2 Gc|ec ge|
"G"d3/2B/2 "C"GE|"G"DG Bd|"C"eg "D"fa|"A7""e"ge "D7""f#"dc|"G"B2 "C"G3/2G/2|\
"G"G||


